actions/22/view-calendar-agenda.svg

<svg xmlns="http://www.w3.org/2000/svg" viewBox="0 0 22 22">
  <defs id="defs3051">
<style type="text/css" id="current-color-scheme">.ColorScheme-Text {color:#fcfcfc;}</style>
  </defs>
 <path 
    style="fill:currentColor;fill-opacity:1;stroke:none" 
    d="M 6,3 C 4,3 4,5 4,5 H 3 V 6 H 4 V 7 H 3 v 1 h 1 v 6 H 3 v 1 h 1 v 1 H 3 v 1 h 1 c 0,0 0,2 2,2 2,0 1,0 1,0 0,0 6,0 9,0 3,0 3,-3 3,-3 V 6 C 19,6 19,3 16,3 13,3 7,3 7,3 7,3 8,3 6,3 Z M 7,4 H 9 V 6 H 7 Z m 3,0 c 0,0 4,0 6,0 2,0 2,2 2,2 H 10 Z M 7,7 H 9 V 9 H 7 Z m 3,0 h 8 v 2 h -8 z m -3,3 h 2 v 2 H 7 Z m 3,0 h 8 v 2 h -8 z m -3,3 h 2 v 2 H 7 Z m 3,0 h 8 v 2 h -8 z m -3,3 h 2 v 2 H 7 Z m 3,0 h 8 c 0,0 0,2 -2,2 -2,0 -6,0 -6,0 z"
	class="ColorScheme-Text"
    />  
</svg>

<svg xmlns="http://www.w3.org/2000/svg" viewBox="0 0 22 22">
  <defs id="defs3051">
    <style type="text/css" id="current-color-scheme">
      .ColorScheme-Text {
        color:#eff0f1;
      }
      </style>
  </defs>
 <path 
    style="fill:currentColor;fill-opacity:1;stroke:none" 
    d="M 4 3 L 4 5 L 3 5 L 3 6 L 4 6 L 4 7 L 3 7 L 3 8 L 4 8 L 4 14 L 3 14 L 3 15 L 4 15 L 4 16 L 3 16 L 3 17 L 4 17 L 4 19 L 7 19 L 19 19 L 19 18 L 19 3 L 7 3 L 4 3 z M 7 4 L 9 4 L 9 6 L 7 6 L 7 4 z M 10 4 L 18 4 L 18 6 L 10 6 L 10 4 z M 7 7 L 9 7 L 9 9 L 7 9 L 7 7 z M 10 7 L 18 7 L 18 9 L 10 9 L 10 7 z M 7 10 L 9 10 L 9 12 L 7 12 L 7 10 z M 10 10 L 18 10 L 18 12 L 10 12 L 10 10 z M 7 13 L 9 13 L 9 15 L 7 15 L 7 13 z M 10 13 L 18 13 L 18 15 L 10 15 L 10 13 z M 7 16 L 9 16 L 9 18 L 7 18 L 7 16 z M 10 16 L 18 16 L 18 18 L 10 18 L 10 16 z "
	class="ColorScheme-Text"
    />  
</svg>
